X:1
T:Take here my heart - Weelkes
T:#
%%score { 1 | 2 } 3 4 5
L:1/8
Q:1/4=120
M:4/4
K:D
V:1 treble nm="Soprano I" snm="S"
V:2 treble 
V:3 treble nm="Alto" snm="A"
V:4 treble-8 nm="Tenor" snm="T"
V:5 bass nm="Bass" snm="B"
V:1
 D4 F3"^Take here my heart" D | A4 z2 d2 | cBAG (FE"^Thomas Weelkes\n(c.1576-1623)" D2 | %3
w: Take here my|heart, I|give it thee for- ev\- * *|
 E4) D2 d2 |[M:4/4] cBAG (FE D2) | A2 F2 (E2 A2) | A4 z4 | z2 f2 edcB | (AG F2) B2 z2 | z4 z2 d2 | %10
w: * er, I|give it thee for- ev\- * *|er, for- ev\- *|er,|I give it thee for-|ev\- * * er,|for-|
 cBAG (FE D2) | E4 C2 (D2- | D2 C2) D4 | z8 | z8 | z4 z2 F2 | G3 E F2 ^G2 | AE A4 G2 | F6 F2 | z8 | %20
w: ev- er, I give it * *|thee for- ev\-|* * er.|||No|bet- ter pledge can|love to love de-|liv- er.||
 z4 e4- | e4 d4- | d4 c4 | B8 | z8 | z4 A4 | F4 G4 | E8 | z8 | z4 B4- | B4 A4- | A4 ^G4 | A4 A4 | %33
w: Fear|* not,|* my|dear,||fear|not, my|dear,||fear|* not,|* my|dear, it|
 A6 A2 | G8- | G4 G4 | G8 | F6 F2 | ^G4 z2 B2 | c4 c2 d2- | d2 f2 e2 c2 | B3 B c4 | z8 | z8 | %44
w: will not|fly|* a-|way,|fly a-|way, For|hope and love|* com- mand my|heart to stay.|||
 z4 z2 A2 | ABcd (edcB | A4) z4 | z4 z2 B2 | cded (cBAG | F2) G2 E3 E | F4 z4 | z2 e2 f3 e | %52
w: De-|sire will make it range, * * *||de-|sire will make it range, * * *|* will make it|range.|Love but my|
 d2 c2 A4 | z2 e2 f3 e | d2 c2 d4 | z2 B2 e3 e | e2 d2 c4- | %57
w: heart, my heart,|love but my|heart, my heart,|my heart will|nev- er change,|
[Q:1/4=118] c2[Q:1/4=115] d2[Q:1/4=113] c2[Q:1/4=110] A2 |[Q:1/4=105] A6[Q:1/4=101] A2 | %59
w: * my heart will|nev- er|
[Q:1/4=100] A8 |] %60
w: change.|
V:2
 z4 D4 | F3 E A4 | z4 z2 d2 | cBAG (FE D2) |[M:4/4] A8- | A8 | z2 f2 edcB | (AG F2) A4 | %8
w: Take|here my heart,|I|give it thee for- ev- * *|er,||I give it thee for-|ev\- * * er,|
 z2 f2 edcB | (A^G A4 G2) | A4 z2 d2 | cBAG (FE D2 | A4) F4 | z8 | z4 z2 B2 | d3 B c2 d2 | %16
w: I give it thee for-|ev\- * * *|er, I|give it thee for- ev\- * *|* er.||No|bet- ter pledge can|
 e2 e2 A2 B2 | c4 B4 | z4 B4- | B4 A4- | A4 G4 | F8 | z8 | e8 | c4 d4 | A8 | z4 B4 | G4 A4 | E8 | %29
w: love to love de-|liv- er.|Fear|* not,|* my|dear,||fear|not, my|dear,|fear|not, my|dear,|
 z8 | z8 | z8 | c8 | d6 d2 | B8 | =c8 | B8 | B6 B2 | B4 z2 ^G2 | A4 A2 B2- | BB B3 A A2- | %41
w: |||it|will not|fly|a-|way,|fly a-|way, For|hope and love|* com- mand my heart|
 A2 ^G2 A4 | z8 | z8 | z8 | A2 AB cd (ed | cB A4) A2 | A2 D2 A2 z2 | A2 cd (edcB | A2) B2 A4- | %50
w: * to stay.||||De- sire will make it range, *|* * * will|make it range,|de- sire will make * * *|* it range,|
 A2 d2 f3 e | d2 c2 d4 | z2 e2 f3 e | d2 c2 d4 | (D2 E2) D4- | D4 z4 | z2 F2 A3 A | A2 F2 E2 D2 | %58
w: * it range. Love|but my heart,|love but my|heart, my heart,|my * heart,||my heart will|nev- er change, will|
 (C2 D2) E4 | F8 |] %60
w: nev\- * er|change.|
V:3
 z8 | D4 F3 E | A2 A,2 B,2 B,2 | A,2 A,2 (B,2 F,2) |[M:4/4] A,4 z4 | z2 A,2 C3 A, | D4 z2 E2 | %7
w: |Take here my|heart, I give it|thee for- ev\- *|er,|take here my|heart, take|
 F3 D E4 | z2 A2 GFED | (CB, A,2) B,4 | z2 F2 F2 ^G2 | A6 A,2 | A,4 A,4 | z8 | z2 F2 G3 E | %15
w: here my heart,|I give it thee for-|ev\- * * er,|I give it|thee for-|ev- er.||No bet- ter|
 F2 ^G2 A2 A,2 | B,2 C2 D4 | E4 E4- | E4 D4- | D4 C4 | B,8- | B,4 B4 | ^G4 A4 | E8 | z4 F4- | %25
w: pledge can love to|love de- liv-|er. Fear|* not,|* my|dear,|* fear|not, my|dear,|fear|
 F4 E4- | E4 D4 | C8 | z4 E4- | E4 D4- | D4 (C4 | B,8) | A,4 E4 | F6 F2 | E8- | E4 E4 | D4 E4- | %37
w: * not,|* my|dear,|fear|* not,|* my||dear, it|will not|fly|* a-|way, fly|
 E4 ^D4 | E4 z2 E2 | E4 F2 F2- | F2 B,2 E2 E2 | E3 E E4 | z4 F4- | F4 E2 D2 | C4 D4 | C4 z2 A2 | %46
w: * a-|way, For|hope and love|* com- mand my|heart to stay.|But|* if thou|doubt, thou|doubt, de-|
 AGFE (FE D2) | C2 F4 ^G2 | A2 A2 E4 | z2 D2 D2 C2 | D2 A2 A3 G | F2 E2 A3 G | F2 E2 D3 (E- | %53
w: sire will make it range, * *|de- sire will|make it range.|Love but my|heart, love but my|heart, love but my|heart, love but my|
 FG A2) A4 | z2 E2 F3 F | F2 D2 C4- | C2 D2 E4- | E2 A,2 A2 F2 | (E2 D4) C2 | D8 |] %60
w: * * * heart,|my heart will|nev- er change,|* my heart,|* my heart will|nev\- * er|change.|
V:4
 z8 | z8 | z8 | z4 z2 f2 |[M:4/4][K:treble-8] edcB (AG F2) | A4 z2 e2 | f3 d a4 | z2 d2 cBAG | %8
w: |||I|give it thee for- ev\- * *|er, take|here my heart,|I give it thee for-|
 (FE D2 E4) | F2 f3 (e d2 | e2) A2 z2 B2 | edcB (AG F2 | E4) D4 | z2 B2 d3 B | c2 d2 e2 e2 | %15
w: ev\- * * *|er, for- ev\- *|* er, I|give it thee for- ev\- * *|* er.|No bet- ter|pledge can love to|
 A2 B2 A2 A2 | z8 | z8 | B8 | ^G4 A4 | F4 z4 | z4 B4- | B4 A4- | A4 G4 | F8 | z8 | z8 | z4 A4- | %28
w: love de- liv- er.|||Fear|not, my|dear,|fear|* not,|* my|dear,|||fear|
 A4 G4- | G4 F4 | E8 | z8 | z4 A4 | A4 F4 | G8- | G4 E4 | G8 | z8 | z4 E4 | A4 F2 B2- | %40
w: * not,|* my|dear,||it|will not|fly|* a-|way,||For|hope and love|
 B2 d2 c2 A2 | E3 E A4 | z8 | A8- | A4 G2 F2 | E4 A4 | A4 D2 DE | FG (AG FE D2 | E4) A4 | %49
w: * com- mand my|heart to stay.||But|* if thou|doubt, thou|doubt, de- sire will|make it range, * * * *|* de-|
 A2 G2 A3 A | D4 z4 | z2 A2 D3 (E | FG A2) D4 | z2 A2 d3 c | B2 A2 A4- | A2 ^G2 A4- | A8 | %57
w: sire will make it|range.|Love but my|* * * heart,|love but my|heart, my heart,|* my heart,||
 z2 F2 A3 A | (A2 F2) E4 | D8 |] %60
w: my heart will|nev\- * er|change|
V:5
 z8 | z8 | z8 | z8 |[M:4/4] z4 D,4 | F,3 D, A,4 | z2 D2 CB,A,G, | (F,E, D,2) A,4- | A,4 z4 | %9
w: ||||Take|here my heart,|I give it thee for-|ev\- * * er,||
 z4 z2 B,2 | A,G,F,E, (D,C, B,,2) | A,,8- | A,,4 z2 D,2 | G,3 E, F,2 G,2 | A,2 F,2 E,2 E,2 | %15
w: I|give it thee for- ev\- * *|er.|* No|bet- ter pledge can|love to love de-|
 D,D, z4 F,2 | E,3 E, D,2 B,,2 | A,,2 A,,2 z4 | z8 | z4 F,4 | ^D,4 E,4 | B,,8 | z8 | z4 E,4- | %24
w: liv- er, can|love to love de-|liv- er.||Fear|not, my|dear,||fear|
 E,4 D,4- | D,4 C,4 | B,,8 | z8 | z8 | B,,8 | ^G,,4 A,,4 | E,8 | z4 A,,4 | D,6 D,2 | E,8 | =C,8 | %36
w: * not,|* my|dear,|||fear|not, my|dear,|it|will not|fly|a-|
 G,,4 G,2 A,2 | B,8 | z8 | z8 | z8 | z8 | z4 F,4- | F,4 E,2 D,2 | A,,8- | A,,8 | z2 D,2 D,E,F,G, | %47
w: way, fly a-|way,|||||But|* if thou|doubt,||de- sire will make it|
 (A,G,F,E, D,2) B,,2 | A,,6 A,,2 | D,2 z2 z4 | z2 D,2 D,3 E, | (F,G, A,2) A,4 | z2 A,2 D3 C | %53
w: range, * * * * will|make it|range.|Love but my|* * * heart|love but my|
 B,2 A,2 D,4 | z2 A,,2 D,3 D, | D,2 B,,2 A,,4- | A,,4 A,,4 | A,,8- | A,,4 A,,4 | D,8 |] %60
w: heart, my heart,|my heart will|nev- er change,|* will|nev\-|* er|change.|

